img/skills-icon/xd_photoshop.svg

<svg viewBox="0 0 800 457" xmlns="http://www.w3.org/2000/svg"><g fill="#f82cbf"><path d="M0 0h469.04c.53 11.92 1.09 23.87.74 35.8-1.29 31.07-1.13 62.19-.15 93.26l.02.77c.94 55.3-.18 110.61.61 165.91-.03 5.48-.02 10.99-.09 16.48-.04 1.25-.08 2.5-.14 3.76-1.17 21.55-2 43.21-.53 64.77 5.5 10.5 16.77 16.89 22.51 27.23-3.13 5.11-7.31 9.48-11.08 14.11-3.15 3.43-6.48 6.75-9.04 10.65-1.57 3.24-1.33 7.03-1.91 10.53-.54 4.56-.83 9.14-1.17 13.73H0V0m20.01 20c-.02 139.33-.01 278.66 0 417.99 142.99.02 285.99.01 428.98.01.02-139.33.01-278.66 0-417.99C306 19.99 163 20 20.01 20z"/><path d="M89.69 109.73c12.78-.91 25.6-.77 38.4-.78 11.33 22.01 21.51 44.6 31.89 67.07 2.03 3.78 2.85 8.65 6.58 11.24 12.01-26.14 23.88-52.39 36.4-78.31 11.89.03 23.78.03 35.67.25-15.36 32.86-33.19 64.5-49.71 96.78-1.37 2.4-2.34 5.38-.88 7.97 12.12 23.26 23.91 46.7 36.19 69.89 5.73 12.03 12.67 23.48 17.39 35.98-12.88.21-25.76.21-38.63.19-13.62-27.3-26.08-55.15-39.59-82.49-12.97 27.43-24.86 55.36-38.4 82.52-12.38-.02-24.77.11-37.14-.62 15.87-31.22 32.13-62.26 48.29-93.33 2.05-4.79 7.6-10.02 4.47-15.55-17.04-33.57-33.89-67.24-50.93-100.81zm251.32-.73h34.98c.01 56.67.05 113.33-.03 170-.03 10.38.22 20.78.96 31.14-19.27 9.42-41.05 13.18-62.39 11.39-14.65-1.92-29.38-7.44-39.86-18.2-11.21-10.77-17.87-25.66-20-40.94-2.02-13.34-2.83-27.18.37-40.39 4.29-20.92 16.94-40.69 36.01-50.91 14.78-9.42 33.02-9.74 49.94-10.25.02-17.28 0-34.56.02-51.84m-33.38 87.63c-17.07 11.98-21.5 34.87-18.77 54.35 1.46 15.07 7.85 32.26 23.42 37.69 8.68 4.29 18.47 1.78 27.7 1.4.03-32.84.04-65.67 0-98.5-10.92-.81-23-1.68-32.35 5.06z"/></g><g fill="#89bbf6"><path d="M469.04 0H800v457H468.81c.34-4.59.63-9.17 1.17-13.73 4.02-7.28 8.31-14.4 12.99-21.27 95.34-.01 190.68.02 286.02-.01.01-128.33.02-256.65 0-384.98-83.33-.01-166.66-.04-249.99.02-16.41-.08-32.87.5-49.22-1.23.35-11.93-.21-23.88-.74-35.8z"/><path d="M469.65 129.83c23.59-1.29 48.08-3.72 71.03 3.52 10.49 3.7 20.24 9.97 26.94 18.99 14.83 20.74 14.97 50.52 1.91 72.13-10.4 16.12-28.08 26.89-46.86 30.1-10.15 1.51-20.4 2.06-30.63 2.72-.09 20 0 40-.07 60-7.33-.37-14.64-.75-21.94-1.31.06-1.26.1-2.51.14-3.76.11-5.5.14-10.99.09-16.48-.79-55.3.33-110.61-.61-165.91m22.96 27.85c-1.12 22.14-.51 44.32-.57 66.48 9.32-.55 18.81-.75 27.86-3.35 9.12-3.11 15.85-11.35 18.54-20.43 2.27-12.51.37-27.15-10.38-35.42-9.94-7.63-23.68-6.43-35.45-7.28zm122.45 21.43c11.52-6.08 24.87-8.01 37.77-7.77 11.67.37 22.72 4.71 33.22 9.51-.04 10.44-.06 20.88-.13 31.33-11.72-5.14-23.87-10.24-36.83-10.79-6.65-.39-15.29 3.43-15.69 10.92-.29 5.75 4.97 9.53 9.67 11.6 14 6.03 29.87 9.79 40.59 21.42 11.41 12.12 12.06 31.27 5.65 45.93-4.7 10.58-14.49 17.87-24.97 22.11-23.11 8.41-49.18 4.65-70.39-7.19.03-10.37.03-20.75.04-31.12 14.11 7.82 30.25 13.49 46.58 11.45 4.38-.62 8.78-3.12 10.84-7.13 1.76-5.91-.71-12.58-5.53-16.27-7.87-7.07-18.59-8.68-27.83-13.21-10.78-4.65-21.63-11.99-25.1-23.88-4.33-18.26 5.47-38.48 22.11-46.91z"/></g><g fill="#2f001e"><path d="M20.01 20c142.99 0 285.99-.01 428.98.01.01 139.33.02 278.66 0 417.99-142.99 0-285.99.01-428.98-.01-.01-139.33-.02-278.66 0-417.99m69.68 89.73c17.04 33.57 33.89 67.24 50.93 100.81 3.13 5.53-2.42 10.76-4.47 15.55-16.16 31.07-32.42 62.11-48.29 93.33 12.37.73 24.76.6 37.14.62 13.54-27.16 25.43-55.09 38.4-82.52 13.51 27.34 25.97 55.19 39.59 82.49 12.87.02 25.75.02 38.63-.19-4.72-12.5-11.66-23.95-17.39-35.98-12.28-23.19-24.07-46.63-36.19-69.89-1.46-2.59-.49-5.57.88-7.97 16.52-32.28 34.35-63.92 49.71-96.78-11.89-.22-23.78-.22-35.67-.25-12.52 25.92-24.39 52.17-36.4 78.31-3.73-2.59-4.55-7.46-6.58-11.24-10.38-22.47-20.56-45.06-31.89-67.07-12.8.01-25.62-.13-38.4.78m251.32-.73c-.02 17.28 0 34.56-.02 51.84-16.92.51-35.16.83-49.94 10.25-19.07 10.22-31.72 29.99-36.01 50.91-3.2 13.21-2.39 27.05-.37 40.39 2.13 15.28 8.79 30.17 20 40.94 10.48 10.76 25.21 16.28 39.86 18.2 21.34 1.79 43.12-1.97 62.39-11.39-.74-10.36-.99-20.76-.96-31.14.08-56.67.04-113.33.03-170h-34.98zm128.62 20.06c-.98-31.07-1.14-62.19.15-93.26.38 31.09.38 62.18-.15 93.26z"/><path d="M307.63 196.63c9.35-6.74 21.43-5.87 32.35-5.06.04 32.83.03 65.66 0 98.5-9.23.38-19.02 2.89-27.7-1.4-15.57-5.43-21.96-22.62-23.42-37.69-2.73-19.48 1.7-42.37 18.77-54.35zM469.5 380.75c-1.47-21.56-.64-43.22.53-64.77 1.97 20.31.28 40.76 1.22 61.12.08 3.04 1.35 5.94 3.42 8.16 6.83 7.73 13.96 15.22 20.06 23.57-4.52 4.5-9.09 8.96-13.8 13.26 3.77-4.63 7.95-9 11.08-14.11-5.74-10.34-17.01-16.73-22.51-27.23z"/></g><g fill="#090142"><path d="M469.78 35.8c16.35 1.73 32.81 1.15 49.22 1.23 83.33-.06 166.66-.03 249.99-.02.02 128.33.01 256.65 0 384.98-95.34.03-190.68 0-286.02.01-4.68 6.87-8.97 13.99-12.99 21.27.58-3.5.34-7.29 1.91-10.53 2.56-3.9 5.89-7.22 9.04-10.65 4.71-4.3 9.28-8.76 13.8-13.26-6.1-8.35-13.23-15.84-20.06-23.57-2.07-2.22-3.34-5.12-3.42-8.16-.94-20.36.75-40.81-1.22-61.12 7.3.56 14.61.94 21.94 1.31.07-20-.02-40 .07-60 10.23-.66 20.48-1.21 30.63-2.72 18.78-3.21 36.46-13.98 46.86-30.1 13.06-21.61 12.92-51.39-1.91-72.13-6.7-9.02-16.45-15.29-26.94-18.99-22.95-7.24-47.44-4.81-71.03-3.52l-.02-.77c.53-31.08.53-62.17.15-93.26m145.28 143.31c-16.64 8.43-26.44 28.65-22.11 46.91 3.47 11.89 14.32 19.23 25.1 23.88 9.24 4.53 19.96 6.14 27.83 13.21 4.82 3.69 7.29 10.36 5.53 16.27-2.06 4.01-6.46 6.51-10.84 7.13-16.33 2.04-32.47-3.63-46.58-11.45-.01 10.37-.01 20.75-.04 31.12 21.21 11.84 47.28 15.6 70.39 7.19 10.48-4.24 20.27-11.53 24.97-22.11 6.41-14.66 5.76-33.81-5.65-45.93-10.72-11.63-26.59-15.39-40.59-21.42-4.7-2.07-9.96-5.85-9.67-11.6.4-7.49 9.04-11.31 15.69-10.92 12.96.55 25.11 5.65 36.83 10.79.07-10.45.09-20.89.13-31.33-10.5-4.8-21.55-9.14-33.22-9.51-12.9-.24-26.25 1.69-37.77 7.77z"/><path d="M492.61 157.68c11.77.85 25.51-.35 35.45 7.28 10.75 8.27 12.65 22.91 10.38 35.42-2.69 9.08-9.42 17.32-18.54 20.43-9.05 2.6-18.54 2.8-27.86 3.35.06-22.16-.55-44.34.57-66.48zm-22.35 138.06c.05 5.49.02 10.98-.09 16.48.07-5.49.06-11 .09-16.48z"/></g></svg>

<?xml version="1.0" encoding="UTF-8" ?>
<!DOCTYPE svg PUBLIC "-//W3C//DTD SVG 1.1//EN" "http://www.w3.org/Graphics/SVG/1.1/DTD/svg11.dtd">
<svg viewBox="0 0 800 457" version="1.1" xmlns="http://www.w3.org/2000/svg">
<g id="#f82cbfff">
<path fill="#f82cbf" opacity="1.00" d=" M 0.00 0.00 L 469.04 0.00 C 469.57 11.92 470.13 23.87 469.78 35.80 C 468.49 66.87 468.65 97.99 469.63 129.06 L 469.65 129.83 C 470.59 185.13 469.47 240.44 470.26 295.74 C 470.23 301.22 470.24 306.73 470.17 312.22 C 470.13 313.47 470.09 314.72 470.03 315.98 C 468.86 337.53 468.03 359.19 469.50 380.75 C 475.00 391.25 486.27 397.64 492.01 407.98 C 488.88 413.09 484.70 417.46 480.93 422.09 C 477.78 425.52 474.45 428.84 471.89 432.74 C 470.32 435.98 470.56 439.77 469.98 443.27 C 469.44 447.83 469.15 452.41 468.81 457.00 L 0.00 457.00 L 0.00 0.00 M 20.01 20.00 C 19.99 159.33 20.00 298.66 20.01 437.99 C 163.00 438.01 306.00 438.00 448.99 438.00 C 449.01 298.67 449.00 159.34 448.99 20.01 C 306.00 19.99 163.00 20.00 20.01 20.00 Z" />
<path fill="#f82cbf" opacity="1.00" d=" M 89.69 109.73 C 102.47 108.82 115.29 108.96 128.09 108.95 C 139.42 130.96 149.60 153.55 159.98 176.02 C 162.01 179.80 162.83 184.67 166.56 187.26 C 178.57 161.12 190.44 134.87 202.96 108.95 C 214.85 108.98 226.74 108.98 238.63 109.20 C 223.27 142.06 205.44 173.70 188.92 205.98 C 187.55 208.38 186.58 211.36 188.04 213.95 C 200.16 237.21 211.95 260.65 224.23 283.84 C 229.96 295.87 236.90 307.32 241.62 319.82 C 228.74 320.03 215.86 320.03 202.99 320.01 C 189.37 292.71 176.91 264.86 163.40 237.52 C 150.43 264.95 138.54 292.88 125.00 320.04 C 112.62 320.02 100.23 320.15 87.86 319.42 C 103.73 288.20 119.99 257.16 136.15 226.09 C 138.20 221.30 143.75 216.07 140.62 210.54 C 123.58 176.97 106.73 143.30 89.69 109.73 Z" />
<path fill="#f82cbf" opacity="1.00" d=" M 341.01 109.00 C 352.66 109.00 364.33 109.00 375.99 109.00 C 376.00 165.67 376.04 222.33 375.96 279.00 C 375.93 289.38 376.18 299.78 376.92 310.14 C 357.65 319.56 335.87 323.32 314.53 321.53 C 299.88 319.61 285.15 314.09 274.67 303.33 C 263.46 292.56 256.80 277.67 254.67 262.39 C 252.65 249.05 251.84 235.21 255.04 222.00 C 259.33 201.08 271.98 181.31 291.05 171.09 C 305.83 161.67 324.07 161.35 340.99 160.84 C 341.01 143.56 340.99 126.28 341.01 109.00 M 307.63 196.63 C 290.56 208.61 286.13 231.50 288.86 250.98 C 290.32 266.05 296.71 283.24 312.28 288.67 C 320.96 292.96 330.75 290.45 339.98 290.07 C 340.01 257.23 340.02 224.40 339.98 191.57 C 329.06 190.76 316.98 189.89 307.63 196.63 Z" />
</g>
<g id="#89bbf6ff">
<path fill="#89bbf6" opacity="1.00" d=" M 469.04 0.00 L 800.00 0.00 L 800.00 457.00 L 468.81 457.00 C 469.15 452.41 469.44 447.83 469.98 443.27 C 474.00 435.99 478.29 428.87 482.97 422.00 C 578.31 421.99 673.65 422.02 768.99 421.99 C 769.00 293.66 769.01 165.34 768.99 37.01 C 685.66 37.00 602.33 36.97 519.00 37.03 C 502.59 36.95 486.13 37.53 469.78 35.80 C 470.13 23.87 469.57 11.92 469.04 0.00 Z" />
<path fill="#89bbf6" opacity="1.00" d=" M 469.65 129.83 C 493.24 128.54 517.73 126.11 540.68 133.35 C 551.17 137.05 560.92 143.32 567.62 152.34 C 582.45 173.08 582.59 202.86 569.53 224.47 C 559.13 240.59 541.45 251.36 522.67 254.57 C 512.52 256.08 502.27 256.63 492.04 257.29 C 491.95 277.29 492.04 297.29 491.97 317.29 C 484.64 316.92 477.33 316.54 470.03 315.98 C 470.09 314.72 470.13 313.47 470.17 312.22 C 470.28 306.72 470.31 301.23 470.26 295.74 C 469.47 240.44 470.59 185.13 469.65 129.83 M 492.61 157.68 C 491.49 179.82 492.10 202.00 492.04 224.16 C 501.36 223.61 510.85 223.41 519.90 220.81 C 529.02 217.70 535.75 209.46 538.44 200.38 C 540.71 187.87 538.81 173.23 528.06 164.96 C 518.12 157.33 504.38 158.53 492.61 157.68 Z" />
<path fill="#89bbf6" opacity="1.00" d=" M 615.06 179.11 C 626.58 173.03 639.93 171.10 652.83 171.34 C 664.50 171.71 675.55 176.05 686.05 180.85 C 686.01 191.29 685.99 201.73 685.92 212.18 C 674.20 207.04 662.05 201.94 649.09 201.39 C 642.44 201.00 633.80 204.82 633.40 212.31 C 633.11 218.06 638.37 221.84 643.07 223.91 C 657.07 229.94 672.94 233.70 683.66 245.33 C 695.07 257.45 695.72 276.60 689.31 291.26 C 684.61 301.84 674.82 309.13 664.34 313.37 C 641.23 321.78 615.16 318.02 593.95 306.18 C 593.98 295.81 593.98 285.43 593.99 275.06 C 608.10 282.88 624.24 288.55 640.57 286.51 C 644.95 285.89 649.35 283.39 651.41 279.38 C 653.17 273.47 650.70 266.80 645.88 263.11 C 638.01 256.04 627.29 254.43 618.05 249.90 C 607.27 245.25 596.42 237.91 592.95 226.02 C 588.62 207.76 598.42 187.54 615.06 179.11 Z" />
</g>
<g id="#2f001eff">
<path fill="#2f001e" opacity="1.00" d=" M 20.01 20.00 C 163.00 20.00 306.00 19.99 448.99 20.01 C 449.00 159.34 449.01 298.67 448.99 438.00 C 306.00 438.00 163.00 438.01 20.01 437.99 C 20.00 298.66 19.99 159.33 20.01 20.00 M 89.69 109.73 C 106.73 143.30 123.58 176.97 140.62 210.54 C 143.75 216.07 138.20 221.30 136.15 226.09 C 119.99 257.16 103.73 288.20 87.86 319.42 C 100.23 320.15 112.62 320.02 125.00 320.04 C 138.54 292.88 150.43 264.95 163.40 237.52 C 176.91 264.86 189.37 292.71 202.99 320.01 C 215.86 320.03 228.74 320.03 241.62 319.82 C 236.90 307.32 229.96 295.87 224.23 283.84 C 211.95 260.65 200.16 237.21 188.04 213.95 C 186.58 211.36 187.55 208.38 188.92 205.98 C 205.44 173.70 223.27 142.06 238.63 109.20 C 226.74 108.98 214.85 108.98 202.96 108.95 C 190.44 134.87 178.57 161.12 166.56 187.26 C 162.83 184.67 162.01 179.80 159.98 176.02 C 149.60 153.55 139.42 130.96 128.09 108.95 C 115.29 108.96 102.47 108.82 89.69 109.73 M 341.01 109.00 C 340.99 126.28 341.01 143.56 340.99 160.84 C 324.07 161.35 305.83 161.67 291.05 171.09 C 271.98 181.31 259.33 201.08 255.04 222.00 C 251.84 235.21 252.65 249.05 254.67 262.39 C 256.80 277.67 263.46 292.56 274.67 303.33 C 285.15 314.09 299.88 319.61 314.53 321.53 C 335.87 323.32 357.65 319.56 376.92 310.14 C 376.18 299.78 375.93 289.38 375.96 279.00 C 376.04 222.33 376.00 165.67 375.99 109.00 C 364.33 109.00 352.66 109.00 341.01 109.00 Z" />
<path fill="#2f001e" opacity="1.00" d=" M 469.63 129.06 C 468.65 97.99 468.49 66.87 469.78 35.80 C 470.16 66.89 470.16 97.98 469.63 129.06 Z" />
<path fill="#2f001e" opacity="1.00" d=" M 307.63 196.63 C 316.98 189.89 329.06 190.76 339.98 191.57 C 340.02 224.40 340.01 257.23 339.98 290.07 C 330.75 290.45 320.96 292.96 312.28 288.67 C 296.71 283.24 290.32 266.05 288.86 250.98 C 286.13 231.50 290.56 208.61 307.63 196.63 Z" />
<path fill="#2f001e" opacity="1.00" d=" M 469.50 380.75 C 468.03 359.19 468.86 337.53 470.03 315.98 C 472.00 336.29 470.31 356.74 471.25 377.10 C 471.33 380.14 472.60 383.04 474.67 385.26 C 481.50 392.99 488.63 400.48 494.73 408.83 C 490.21 413.33 485.64 417.79 480.93 422.09 C 484.70 417.46 488.88 413.09 492.01 407.98 C 486.27 397.64 475.00 391.25 469.50 380.75 Z" />
</g>
<g id="#090142ff">
<path fill="#090142" opacity="1.00" d=" M 469.78 35.80 C 486.13 37.53 502.59 36.95 519.00 37.03 C 602.33 36.97 685.66 37.00 768.99 37.01 C 769.01 165.34 769.00 293.66 768.99 421.99 C 673.65 422.02 578.31 421.99 482.97 422.00 C 478.29 428.87 474.00 435.99 469.98 443.27 C 470.56 439.77 470.32 435.98 471.89 432.74 C 474.45 428.84 477.78 425.52 480.93 422.09 C 485.64 417.79 490.21 413.33 494.73 408.83 C 488.63 400.48 481.50 392.99 474.67 385.26 C 472.60 383.04 471.33 380.14 471.25 377.10 C 470.31 356.74 472.00 336.29 470.03 315.98 C 477.33 316.54 484.64 316.92 491.97 317.29 C 492.04 297.29 491.95 277.29 492.04 257.29 C 502.27 256.63 512.52 256.08 522.67 254.57 C 541.45 251.36 559.13 240.59 569.53 224.47 C 582.59 202.86 582.45 173.08 567.62 152.34 C 560.92 143.32 551.17 137.05 540.68 133.35 C 517.73 126.11 493.24 128.54 469.65 129.83 L 469.63 129.06 C 470.16 97.98 470.16 66.89 469.78 35.80 M 615.06 179.11 C 598.42 187.54 588.62 207.76 592.95 226.02 C 596.42 237.91 607.27 245.25 618.05 249.90 C 627.29 254.43 638.01 256.04 645.88 263.11 C 650.70 266.80 653.17 273.47 651.41 279.38 C 649.35 283.39 644.95 285.89 640.57 286.51 C 624.24 288.55 608.10 282.88 593.99 275.06 C 593.98 285.43 593.98 295.81 593.95 306.18 C 615.16 318.02 641.23 321.78 664.34 313.37 C 674.82 309.13 684.61 301.84 689.31 291.26 C 695.72 276.60 695.07 257.45 683.66 245.33 C 672.94 233.70 657.07 229.94 643.07 223.91 C 638.37 221.84 633.11 218.06 633.40 212.31 C 633.80 204.82 642.44 201.00 649.09 201.39 C 662.05 201.94 674.20 207.04 685.92 212.18 C 685.99 201.73 686.01 191.29 686.05 180.85 C 675.55 176.05 664.50 171.71 652.83 171.34 C 639.93 171.10 626.58 173.03 615.06 179.11 Z" />
<path fill="#090142" opacity="1.00" d=" M 492.61 157.68 C 504.38 158.53 518.12 157.33 528.06 164.96 C 538.81 173.23 540.71 187.87 538.44 200.38 C 535.75 209.46 529.02 217.70 519.90 220.81 C 510.85 223.41 501.36 223.61 492.04 224.16 C 492.10 202.00 491.49 179.82 492.61 157.68 Z" />
<path fill="#090142" opacity="1.00" d=" M 470.26 295.74 C 470.31 301.23 470.28 306.72 470.17 312.22 C 470.24 306.73 470.23 301.22 470.26 295.74 Z" />
</g>
</svg>
